X:1
T: Solingpolska i G-dur
R: Polska
S: Utlärd av Jonny Soling
Z: Karin Arén
M: 3/4
L: 1/8
K: G
uD GA |: vB3 (d c/d/)c/A/ | vF2 ({FG}F/E/)F/G/ AA/B/ | uc3 v(e d)d/B/ | G2 (G2 B)>u(B |
d/B/)d/g/ b>u(a Tg)f/g/ | ee v(a>g f/g/)f/e/ | udd/c/ A>F G2 |1 uG3 D GA :|2 uG3 v(g b)a |: 
vg3 (f e/f/)e/d/ | c2 cB/c/ ag | vf3 (f (3e/)e/f/e/d/ | vg2 gf/g/ ba | 
Tv(g3 Tf e/f/)e/d/ | uc2 v(c>B A)>(G | F/E/)F/A/ d>F G2 | uG3 v(g b)a :|

